X: 31112
T: Paddy Fahey's
R: reel
M: 4/4
K: Ddorian
D2A,D FEFG|Add^c d2de|fedf edcA|dcAG FDEC|
DAAG FEFG|Add^c d2de|fedf edcA|dcAG FDD2:|
|:Ad ~d2 ^fded|c2 Gc EcGc|Ad ~d2 ^fded|cBcd ed ~d2|
a2 ^ga ABcA|dcAG FD ~D2|D2 A,D FEFG|Ad^ce d4:|

